X:12
T:Neilí, an Fuacht
S:Muiris Ó Dálaigh (accordion)
D:Beauty an Oileáin, Claddagh CC56CD, track 2(c);
D:Brendan Begley, 'We Won't Go Home 'til Morning',
D:Kells Music CD KM-9510.
N:A minor key setting appears for the Ardgroom Set
N:on 'Call the Set, Tape III' by Pat Sullivan,
N:Vince Milne, etc., Cork Folk Publishing CFP0003
N:(cassette).
Z:ATB
R:polka
M:2/4
L:1/8
K:D
ed cA|{g}ed cA|AB cd|ed d/2d/2z|
{g}ed cA|ed cA|AB cd|ec d2:|]
ef {b}g2|gf ec|ef gg|gf e2|
ef g2|gf ec|cd ef|ge d2:|]
